src/icons/nav-dashboard-selected.svg

<svg viewBox="0 0 27 27" xmlns="http://www.w3.org/2000/svg" xmlns:xlink="http://www.w3.org/1999/xlink"><filter id="a"><feColorMatrix in="SourceGraphic" type="matrix" values="0 0 0 0 1.000000 0 0 0 0 1.000000 0 0 0 0 1.000000 0 0 0 1.000000 0"/></filter><g fill="none" fill-rule="evenodd" filter="url(#a)"><path d="m22 0c2.7614237 0 5 2.23857625 5 5v17c0 2.7614237-2.2385763 5-5 5h-17c-2.76142375 0-5-2.2385763-5-5v-17c0-2.76142375 2.23857625-5 5-5zm-1 1h-15c-2.76142375 0-5 2.23857625-5 5v15c0 2.7614237 2.23857625 5 5 5h15c2.7614237 0 5-2.2385763 5-5v-15c0-2.76142375-2.2385763-5-5-5z" fill="#cdcaca" opacity=".5"/><path d="m13.656 8h5.344v4h-5.344zm0 12v-6.656h5.344v6.656zm-6.656 0v-4h5.344v4zm0-5.344v-6.656h5.344v6.656z" fill="#fff" fill-rule="nonzero"/></g></svg>

<svg viewBox="0 0 27 27" xmlns="http://www.w3.org/2000/svg"><filter id="a"><feColorMatrix in="SourceGraphic" values="0 0 0 0 1.000000 0 0 0 0 1.000000 0 0 0 0 1.000000 0 0 0 1.000000 0"/></filter><g fill="none" fill-rule="evenodd" filter="url(#a)"><path d="M22 0a5 5 0 015 5v17a5 5 0 01-5 5H5a5 5 0 01-5-5V5a5 5 0 015-5zm-1 1H6a5 5 0 00-5 5v15a5 5 0 005 5h15a5 5 0 005-5V6a5 5 0 00-5-5z" fill="#cdcaca" opacity=".5"/><path d="M13.656 8H19v4h-5.344zm0 12v-6.656H19V20zM7 20v-4h5.344v4zm0-5.344V8h5.344v6.656z" fill="#fff" fill-rule="nonzero"/></g></svg>
